X: 13150
T: First Month Of Summer, The
R: reel
M: 4/4
K: Dmajor
(3efe|dB(3BBB A2FA|D2FAg2 fe|dB(3BBB A2FA|Beed e2fe
dBBA BAFB|A3B defa|affe edef|dBAB e3f|
a2f2 afbf|af(3fff afef|a2f2 abaf|edfe dBAB|
a2f2afbf|af(3fff afef|fa(3aaa fb(3bbb|bafe fdef|

